Numix-GalliumOS/64/devices/mouse.svg

<?xml version="1.0" encoding="UTF-8" standalone="yes"?>
<svg xmlns="http://www.w3.org/2000/svg" xmlns:xlink="http://www.w3.org/1999/xlink" width="64px" height="64px" viewBox="0 0 48 48" version="1.1">
  <g id="surface1">
    <path style=" stroke:none;fill-rule:nonzero;fill:rgb(34.509804%,43.137255%,45.882353%);fill-opacity:1;" d="M 24.179688 6.5625 C 30.089844 6.5625 34.882812 11.542969 34.882812 17.683594 L 34.882812 31.03125 C 34.882812 37.175781 30.089844 42.15625 24.179688 42.15625 C 18.265625 42.15625 13.472656 37.175781 13.472656 31.03125 L 13.472656 17.683594 C 13.472656 11.542969 18.265625 6.5625 24.179688 6.5625 Z M 24.179688 6.5625 "/>
    <path style=" stroke:none;fill-rule:nonzero;fill:rgb(51.372549%,58.039216%,58.823529%);fill-opacity:1;" d="M 22.5 5.25 L 22.5 22.5 L 12 22.5 L 12 16.136719 C 12 10.5 16.734375 5.960938 22.5 5.25 Z M 25.5 5.25 C 31.167969 6.042969 36 10.566406 36 16.136719 L 36 22.5 L 25.5 22.5 Z M 12 25.5 L 36 25.5 L 36 31.714844 C 36 37.855469 30.519531 42.75 24 42.75 C 17.480469 42.75 12 37.855469 12 31.714844 Z M 12 25.5 "/>
    <path style=" stroke:none;fill-rule:nonzero;fill:rgb(99.215686%,96.470588%,89.019608%);fill-opacity:0.247059;" d="M 31.5 7.71875 L 31.5 22.5 L 33.75 22.5 L 33.75 9.898438 C 33.105469 9.085938 32.347656 8.351562 31.5 7.71875 Z M 31.5 25.5 L 31.5 40.308594 C 32.351562 39.675781 33.109375 38.9375 33.75 38.117188 L 33.75 25.5 Z M 31.5 25.5 "/>
  </g>
</svg>

<svg xmlns="http://www.w3.org/2000/svg" width="64" height="64" viewBox="0 0 48 48">
 <g>
  <path d="m 24.18 6.563 c 5.91 0 10.703 4.98 10.703 11.121 l 0 13.348 c 0 6.145 -4.793 11.125 -10.703 11.125 c -5.914 0 -10.707 -4.98 -10.707 -11.125 l 0 -13.348 c 0 -6.141 4.793 -11.121 10.707 -11.121 m 0 0" style="fill:#586e75;fill-opacity:1;stroke:none;fill-rule:nonzero"/>
  <path d="m 22.5 5.25 l 0 17.25 l -10.5 0 l 0 -6.363 c 0 -5.637 4.734 -10.176 10.5 -10.887 m 3 0 c 5.668 0.793 10.5 5.316 10.5 10.887 l 0 6.363 l -10.5 0 m -13.5 3 l 24 0 l 0 6.215 c 0 6.141 -5.48 11.04 -12 11.04 c -6.52 0 -12 -4.895 -12 -11.04 m 0 -6.215" style="fill:#829495;fill-opacity:1;stroke:none;fill-rule:nonzero"/>
  <path d="m 31.5 7.719 l 0 14.781 l 2.25 0 l 0 -12.602 c -0.645 -0.813 -1.402 -1.547 -2.25 -2.18 m 0 17.781 l 0 14.809 c 0.852 -0.633 1.609 -1.371 2.25 -2.191 l 0 -12.617 m -2.25 0" style="fill:#fcf5e3;fill-opacity:0.247;stroke:none;fill-rule:nonzero"/>
 </g>
</svg>
